!!!COM: Robert Schumann
!!!CNT: Deutscher
!!!TXO: Deutsche 
!!!OTL: Und wu2ssten's die Blumen, die kleinen
!!!OPR: Dichterliebe
!!!OPS: Opus 48
!!!ONM: No. 8
!!!LYR: Heine
!!!ENC: Brian Bice
!!!YOR: Sa2mtliche Lieder, vol. 1, C.F. Peters
!!!ODT: 1840/
!!NB: Vocal melody and text only encoded.
**kern	**silbe
*clefG2	*
*k[]	*
*M2/4	*
=0	=0
4.r	.
16r	.
{16ee	{Und
=1	=1
8ee	wu2ss-
16dd	-ten's
16dd	die
8cc	Blu-
16b	-men,
16b	die
=2	=2
4a	klei-
8a}	-nen,}
16r	.
{16ff	{wie
=3	=3
8.ff	tief
16ee	ver-
8dd	-wun-
16cc	-det
16cc	mein
=4	=4
4.b-}	Herz,}
16r	.
{16a	{sie
=5	=5
8.g#	wu2r-
16g#	-den
8a	mit
8bn	mir
=6	=6
4cc	wei-
8cc}	-nen,}
16r	.
{16cc	{zu
=7	=7
8.b	hei-
16b	-len
8.g#	mei-
16g#	-nen
=8	=8
4a}	Schmerz.}
8r	.
16r	.
{16ee	{Und
=9	=9
8ee	wu2ss-
16dd	-ten's
16dd	die
8.cc	Nach-
16b	-ti-
=10	=10
4a	-gal-
8a}	-len,}
16r	.
{16ff	{wie
=11	=11
8.ff	ich
16ee	so
8dd	trau-
16cc	-rig
16cc	und
=12	=12
4.b-}	krank,}
16r	.
{16a	{sie
=13	=13
8.g#	lie-
16g#	-ssen
8a	fro2h-
16bn	-lich
16bn	er-
=14	=14
4cc	-schal-
8cc}	-len}
16r	.
{16cc	{er-
=15	=15
8.b	-qui-
16b	-cken-
8.g#	-den
16g#	Ge-
=16	=16
4a}	-sang.}
8r	.
16r	.
{16ee	{Und
=17	=17
8.ee	wu2ss-
16dd	-ten
8.cc	sie
16b	mein
=18	=18
4a	We-
8a}	-he,}
16r	.
{16ff	{die
=19	=19
8ff	gol-
16ee	-de-
16ee	-nen
8.dd	Ster-
16cc	-ne-
=20	=20
4.b-}	-lein,}
16r	.
{16a	{sie
=21	=21
8g#	ka2-
16g#	-man
16g#	aus
8a	ih-
8bn	-rer
=22	=22
4cc	Ho2-
8cc}	-he,}
16r	.
{16cc	{und
=23	=23
8.b	spra2-
16b	-chen
8.g#	Trost
16g#	mir
=24	=24
4a}	ein.}
8r	.
16r	.
{16ee	{Sie
=25	=25
8.ee	al-
16dd	-le
8cc#	ko2n-
16b	-nen's
16b	nicht
=26	=26
4a	wis-
8a}	-sen,}
{8dd	{nur
=27	=27
8dd	Ei-
16cc	-ne
16cc	kennt
8b-	mei-
8a	-nen
=28	=28
4g}	Schmerz;}
8r	.
16r	.
{16cc	{sie
=29	=29
8.cc	hat
16cc	ja
8.bn	selbst
16a	zer-
=30	=30
8g#	-ris-
4a}	-sen,}
16r	.
{16cc	{zer-
=31	=31
8.cc	-ris-
16b-	-sen
8a	mir
8g#	das
=32	=32
4a}	Herz.}
4r	.
*-	*-
